icons/lines/js.svg

<svg xmlns="http://www.w3.org/2000/svg" width="24" height="24" viewBox="0 0 24 24" fill="none" stroke="currentColor" stroke-width="2" stroke-linecap="round" stroke-linejoin="round" >
  <path d="M9 8.99999V16.9C9 18.4 7.4 19.4 6 18.6L3.5 17.2C3.2 17.1 3 16.8 3 16.4V7.59999C3 7.19999 3.2 6.89999 3.5 6.69999L11.5 2.29999C11.8 2.09999 12.2 2.09999 12.5 2.29999L20.5 6.69999C20.8 6.89999 21 7.19999 21 7.59999V16.4C21 16.8 20.8 17.1 20.5 17.3L12.5 21.7C12.2 21.9 11.8 21.9 11.5 21.7L10 21" stroke-miterlimit="10"/>
  <path d="M16.9998 10.8C16.9998 9.8 16.1998 9 15.2998 9H13.4998C12.4998 9 11.7998 9.8 11.7998 10.7C11.7998 11.7 12.5998 12.4 13.4998 12.4H15.2998C16.2998 12.4 16.9998 13.2 16.9998 14.1C16.9998 15.1 16.1998 15.8 15.2998 15.8H13.4998C12.4998 15.8 11.7998 15 11.7998 14.1" stroke-miterlimit="10"/>
  </svg>

<svg xmlns="http://www.w3.org/2000/svg" width="24" height="24" viewBox="0 0 24 24" fill="none" stroke="currentColor" stroke-width="2" stroke-linecap="round" stroke-linejoin="round">
  <path d="M17 10.8c0-1-.8-1.8-1.7-1.8h-1.8a1 1 0 0 0 0 3.4h1.8a1 1 0 0 1 0 3.4h-1.8a1.686 1.686 0 0 1-1.7-1.7" />
  <path d="M9 9v7.9a2 2 0 0 1-3 1.7l-2.5-1.4c-.3-.1-.5-.4-.5-.8V7.6a1 1 0 0 1 .5-.9l8-4.4a1 1 0 0 1 1 0l8 4.4a1 1 0 0 1 .5.9v8.8a1 1 0 0 1-.5.9l-8 4.4a1 1 0 0 1-1 0L10 21" />
</svg>
